Adwaita++/actions/22/node-type-auto-smooth.svg

<svg height="22" viewBox="0 0 22 22" width="22" xmlns="http://www.w3.org/2000/svg">
  <path d="m15.419922 2a.49828.50178 0 0 0 -.480469.5878906c.21765 1.6002-.143139 3.8694813-1.255859 5.6757813-.57302.93016-1.33436 1.7396471-2.31836 2.3105471a3.4876 3.5121 0 0 0 -3.3671871-2.5996096 3.4876 3.5121 0 0 0 -3.375 2.6464846c-1.0173-.572-1.7948938-1.3957628-2.3710938-2.3515628-1.0876-1.8041999-1.41838123-4.0736281-1.1757812-5.6738281a.49828.50178 0 0 0 -.52343752-.5839843.49828.50178 0 0 0 -.4609375.4335937c-.28263 1.8642.07726062 4.30435 1.30664062 6.34375.7158 1.1873 1.7593406 2.2188125 3.1191406 2.8828125a3.4876 3.5121 0 0 0 3.4804688 3.328125 3.4876 3.5121 0 0 0 3.4824221-3.376953c1.3176-.66534 2.338281-1.6733782 3.050781-2.8300782 1.255-2.0371001 1.650084-4.4756438 1.396484-6.3398438a.49828.50178 0 0 0 -.507812-.453125z" fill="#444" transform="translate(3 3)"/>
</svg>

<svg xmlns="http://www.w3.org/2000/svg" width="22" height="22" viewBox="0 0 22 22">
 <defs>
  <style id="current-color-scheme" type="text/css">
   .ColorScheme-Text { color:#444444; } .ColorScheme-Highlight { color:#4285f4; }
  </style>
 </defs>
 <path style="fill:currentColor" class="ColorScheme-Text" d="M 15.419922 2 A 0.49828 0.50178 0 0 0 14.939453 2.5878906 C 15.157103 4.1880906 14.796314 6.4573719 13.683594 8.2636719 C 13.110574 9.1938319 12.349234 10.003319 11.365234 10.574219 A 3.4876 3.5121 0 0 0 7.9980469 7.9746094 A 3.4876 3.5121 0 0 0 4.6230469 10.621094 C 3.6057469 10.049094 2.8281531 9.2253312 2.2519531 8.2695312 C 1.1643531 6.4653313 0.83357187 4.1959031 1.0761719 2.5957031 A 0.49828 0.50178 0 0 0 0.55273438 2.0117188 A 0.49828 0.50178 0 0 0 0.091796875 2.4453125 C -0.19083312 4.3095125 0.1690575 6.7496625 1.3984375 8.7890625 C 2.1142375 9.9763625 3.1577781 11.007875 4.5175781 11.671875 A 3.4876 3.5121 0 0 0 7.9980469 15 A 3.4876 3.5121 0 0 0 11.480469 11.623047 C 12.798069 10.957707 13.81875 9.9496688 14.53125 8.7929688 C 15.78625 6.7558687 16.181334 4.317325 15.927734 2.453125 A 0.49828 0.50178 0 0 0 15.419922 2 z" transform="translate(3 3)"/>
</svg>
